archdroid-icon-theme/Archdroid-DeepOrange/actions/scalable/view-list-compact.svg

<svg fill="#FF5722" viewBox="0 0 48 48" xmlns="http://www.w3.org/2000/svg"><path d="m8 22h10v-12h-10zm0 14h10v-12h-10zm12 0h10v-12h-10zm12 0h10v-12h-10zm-12-14h10v-12h-10zm12-12v12h10v-12z" fill="#FF5722"/></svg>

<svg fill="#FF5722" viewBox="0 0 48 48" xmlns="http://www.w3.org/2000/svg"><path d="M8 22h10V10H8v12zm0 14h10V24H8v12zm12 0h10V24H20v12zm12 0h10V24H32v12zM20 22h10V10H20v12zm12-12v12h10V10H32z"/></svg>
